X:0099
T:Quick Step Fusileers.
M:6/8
L:1/8
Q:3/8=84
I: :: ::
Z:Jack Campin * www.campin.me.uk * 2009
K:G
g|(f/g/af) g2e|aAA A2g|(f/g/af) g2e|dBG G2
g|(f/g/af) g2e|eae c2A| BcB     g2e|dBG G2:|
B| AAA     c2A|d2B c2A| AAA     c2A|dBG G2
B| AAA     c2A|d2B c2A| BcB     g2e|dBG G2:|

